X:1
T:Johnnie Faa
R:air
S:Chris Norman
M:C
L:1/8
Q:1/4=85
K:C
G2 GA c3 e| AG Ac d3 e| G2 GA ce dc| A4 G4:|!
d2 de g3 a| ge d>c c4| d2 d/c/d/e/ g3 a| e3 f/e/ d4|!
d2 d/c/d/e/ g3 a| ge dc d4| G2 GA ce dc| A3 G/A/ G4|
